X: 11
T: Mormors Trskopolska
S: efter August Strmberg
O: Jt, Smland
Z: Transcribed to abc by Jon Magnusson 080411
R: Polska
M: 3/4
L: 1/8
K: G
GF GB Ac|Bd c2e2|dB cA BG|AF G2D2|
GF GB Ac|Bd c2e2|[1 dB cA F2|G2G4:|
[2 dB cA f2|g2 g4|]gf ga ba|gf e2c2|
fe fg ag|fe d2B2|c2 ed B2|dc A2 cB|
GF GB AG|FE D4|gf ga ba|gf e2c2|
fe fg ag|fe d2B2|c2 ed B2|dc A2 cB|
GB df a2-|a2g4|ce ge ce|ge c2e2|:
Bd gd Bd|gd B2d2|AG AB cB|cd e2d2|
cB cA F2|G2 G4|ce ge ce|ge c2e2|
Bd gd Bd|gd B2d2|AG AB cB|cd e2a2|
gf ed f2|g2 g4:|
